svgs/roku.svg

<svg width="24" height="24" viewBox="0 0 24 24" fill="none" xmlns="http://www.w3.org/2000/svg">
<path d="M5.14971 11.0418C5.14971 10.4734 4.69261 10.0159 4.13384 10.0159H3.63006V12.0585H4.13384C4.69261 12.0585 5.14971 11.6005 5.14971 11.0418ZM7.44189 15.1136H5.59224L4.12383 13.0756H3.63006V15.109H2V9H4.33509C5.68139 9 6.78019 9.91547 6.78019 11.0418C6.78019 11.7289 6.35893 12.3422 5.71766 12.7177L7.44189 15.1136Z" fill="black"/>
<path d="M9.27988 11.4084C8.84945 11.4084 8.48319 11.9935 8.48319 12.7181C8.48319 13.4427 8.84945 14.0281 9.27988 14.0281C9.72032 14.0281 10.0858 13.4423 10.0858 12.7181C10.0858 11.9939 9.72032 11.4084 9.27988 11.4084ZM11.7892 12.7176C11.7892 14.1015 10.6637 15.2094 9.27988 15.2094C7.89649 15.2094 6.77936 14.1015 6.77936 12.7176C6.77936 11.3351 7.89649 10.2263 9.27988 10.2263C10.6637 10.2263 11.7892 11.3351 11.7892 12.7176Z" fill="black"/>
<path d="M15.6143 10.3276L13.7363 12.2051V10.3213H12.1067V15.1086H13.7363V13.1664L15.6968 15.1086H17.7482L15.2568 12.6172L17.3202 10.5546V13.3956C17.3202 14.339 17.8873 15.2094 19.3161 15.2094C19.9945 15.2094 20.6166 14.8248 20.9191 14.4769L21.6521 15.109H22V10.328H20.3704V13.4235C20.187 13.744 19.9312 13.9452 19.5357 13.9452C19.1349 13.9452 18.9507 13.7077 18.9507 12.9473V10.328L15.6143 10.3276Z" fill="black"/>
</svg>

<svg width="24" height="24" viewBox="0 0 24 24" fill="none" xmlns="http://www.w3.org/2000/svg"><path d="M5.15 11.042c0-.569-.457-1.026-1.016-1.026H3.63v2.043h.504a1.02 1.02 0 0 0 1.016-1.017Zm2.292 4.072h-1.85l-1.468-2.038H3.63v2.033H2V9h2.335c1.346 0 2.445.915 2.445 2.042 0 .687-.421 1.3-1.062 1.676l1.724 2.396Z" fill="#000"/><path d="M9.28 11.408c-.43 0-.797.585-.797 1.31 0 .725.366 1.31.797 1.31.44 0 .806-.586.806-1.31 0-.724-.366-1.31-.806-1.31Zm2.51 1.31a2.497 2.497 0 0 1-2.51 2.491 2.49 2.49 0 0 1-2.5-2.491 2.49 2.49 0 0 1 2.5-2.492 2.497 2.497 0 0 1 2.51 2.492ZM15.614 10.328l-1.878 1.877v-1.884h-1.63v4.788h1.63v-1.943l1.96 1.943h2.052l-2.491-2.492 2.063-2.062v2.84c0 .944.567 1.814 1.996 1.814.678 0 1.3-.384 1.603-.732l.733.632H22v-4.781h-1.63v3.096c-.183.32-.439.521-.834.521-.401 0-.585-.237-.585-.998v-2.619h-3.337Z" fill="#000"/></svg>
